src/main/resources/static/fa/svgs/regular/eye.svg

<svg xmlns="http://www.w3.org/2000/svg" viewBox="0 0 576 512"><!--! Font Awesome Free 6.5.2 by @fontawesome - https://fontawesome.com License - https://fontawesome.com/license/free (Icons: CC BY 4.0, Fonts: SIL OFL 1.1, Code: MIT License) Copyright 2024 Fonticons, Inc. --><path d="M288 80c-65.2 0-118.8 29.6-159.9 67.7C89.6 183.5 63 226 49.4 256c13.6 30 40.2 72.5 78.6 108.3C169.2 402.4 222.8 432 288 432s118.8-29.6 159.9-67.7C486.4 328.5 513 286 526.6 256c-13.6-30-40.2-72.5-78.6-108.3C406.8 109.6 353.2 80 288 80zM95.4 112.6C142.5 68.8 207.2 32 288 32s145.5 36.8 192.6 80.6c46.8 43.5 78.1 95.4 93 131.1c3.3 7.9 3.3 16.7 0 24.6c-14.9 35.7-46.2 87.7-93 131.1C433.5 443.2 368.8 480 288 480s-145.5-36.8-192.6-80.6C48.6 356 17.3 304 2.5 268.3c-3.3-7.9-3.3-16.7 0-24.6C17.3 208 48.6 156 95.4 112.6zM288 336c44.2 0 80-35.8 80-80s-35.8-80-80-80c-.7 0-1.3 0-2 0c1.3 5.1 2 10.5 2 16c0 35.3-28.7 64-64 64c-5.5 0-10.9-.7-16-2c0 .7 0 1.3 0 2c0 44.2 35.8 80 80 80zm0-208a128 128 0 1 1 0 256 128 128 0 1 1 0-256z"/></svg>

<svg xmlns="http://www.w3.org/2000/svg" viewBox="0 0 576 512"><!--! Font Awesome Free 6.1.1 by @fontawesome - https://fontawesome.com License - https://fontawesome.com/license/free (Icons: CC BY 4.0, Fonts: SIL OFL 1.1, Code: MIT License) Copyright 2022 Fonticons, Inc. --><path d="M160 256C160 185.3 217.3 128 288 128C358.7 128 416 185.3 416 256C416 326.7 358.7 384 288 384C217.3 384 160 326.7 160 256zM288 336C332.2 336 368 300.2 368 256C368 211.8 332.2 176 288 176C287.3 176 286.7 176 285.1 176C287.3 181.1 288 186.5 288 192C288 227.3 259.3 256 224 256C218.5 256 213.1 255.3 208 253.1C208 254.7 208 255.3 208 255.1C208 300.2 243.8 336 288 336L288 336zM95.42 112.6C142.5 68.84 207.2 32 288 32C368.8 32 433.5 68.84 480.6 112.6C527.4 156 558.7 207.1 573.5 243.7C576.8 251.6 576.8 260.4 573.5 268.3C558.7 304 527.4 355.1 480.6 399.4C433.5 443.2 368.8 480 288 480C207.2 480 142.5 443.2 95.42 399.4C48.62 355.1 17.34 304 2.461 268.3C-.8205 260.4-.8205 251.6 2.461 243.7C17.34 207.1 48.62 156 95.42 112.6V112.6zM288 80C222.8 80 169.2 109.6 128.1 147.7C89.6 183.5 63.02 225.1 49.44 256C63.02 286 89.6 328.5 128.1 364.3C169.2 402.4 222.8 432 288 432C353.2 432 406.8 402.4 447.9 364.3C486.4 328.5 512.1 286 526.6 256C512.1 225.1 486.4 183.5 447.9 147.7C406.8 109.6 353.2 80 288 80V80z"/></svg>
